X:2193 
T:O Kathleen you are going to leave me 
C:Traditional
O:Isle of Man
Z:Clague collection
B:Kiaull Vannin #193 
M:3/4 
L:1/4
K:G 
E|GBG|FA F/E/|DE E/F/|GAB|Bcd|e2 d/c/|
dcB|AB F/E/|DE B/A/|GFE|B,GF|E2||

